lib/logo_updates/nrk-logo-nrk-tegnspraak-symbol-on-light.svg

<svg width="190" height="64" viewBox="0 0 190 64" fill="none" xmlns="http://www.w3.org/2000/svg">
<path d="M0 53V11.0038H13.7802V53H0ZM32.5283 17.6877L40.4532 53H25.3721L15.9092 11.0038H24.3676C26.3072 10.9786 28.1892 11.6624 29.6607 12.9264C31.1347 14.1373 32.1473 15.8184 32.5283 17.6877ZM42.5233 53V11.0038H56.3035V53H42.5233ZM66.7116 26.9743C65.2267 26.9888 63.7656 26.6003 62.4839 25.8504C61.2193 25.1194 60.1688 24.0689 59.438 22.8041C58.6872 21.5222 58.2986 20.0607 58.3134 18.5751C58.2964 17.0986 58.6853 15.6458 59.438 14.3755C60.1766 13.1245 61.2259 12.0853 62.4839 11.3588C63.766 10.6098 65.2269 10.2213 66.7116 10.2348C68.1877 10.2189 69.6399 10.6078 70.9108 11.3588C72.1562 12.0917 73.1943 13.13 73.9271 14.3755C74.6789 15.6462 75.0677 17.0987 75.0517 18.5751C75.0655 20.0605 74.6769 21.5218 73.9271 22.8041C73.202 24.0633 72.1627 25.113 70.9108 25.8504C69.6398 26.6029 68.1866 26.9918 66.7097 26.9743H66.7116ZM77.1807 53V11.0038H90.9621V53H77.1807ZM108.408 33.9538C108.447 33.9946 108.742 34.4776 109.295 35.403C109.848 36.3283 110.567 37.5114 111.454 38.952C112.341 40.392 113.277 41.9199 114.262 43.536C115.247 45.1521 116.174 46.6803 117.043 48.1202C117.908 49.5602 118.894 51.1867 120 53H104.859C103.912 51.4621 103.055 50.0721 102.286 48.83C101.517 47.5878 100.7 46.2471 99.8334 44.8077C98.9653 43.3698 98.1071 41.9699 97.2587 40.6081C96.4103 39.2464 95.6813 38.0536 95.0714 37.0297C94.459 36.0051 94.0348 35.3149 93.7989 34.9594C93.2139 34.0771 92.8677 33.058 92.7944 32.0019C92.853 30.9883 93.1791 30.0084 93.7397 29.1619C93.9762 28.7676 94.41 28.0675 95.0409 27.062C95.6717 26.0564 96.411 24.8637 97.2587 23.4835C98.1064 22.1034 98.9647 20.6936 99.8334 19.2543C100.702 17.815 101.519 16.4643 102.286 15.2025C103.056 13.9419 103.914 12.5421 104.859 11.0029H120L108.289 30.1082C107.926 30.6755 107.722 31.3292 107.697 32.0019C107.736 32.7081 107.983 33.3871 108.406 33.9538H108.408Z" fill="#0A2343"/>
<circle cx="158" cy="32" r="31" fill="white"/>
<path fill-rule="evenodd" clip-rule="evenodd" d="M180.627 54.6274C186.629 48.6262 190 40.4869 190 32C190 23.5131 186.629 15.3738 180.627 9.37259C174.626 3.37143 166.487 0 158 0C149.513 0 141.374 3.37143 135.373 9.37259C129.371 15.3738 126 23.5131 126 32C126 40.4869 129.371 48.6262 135.373 54.6274C141.374 60.6286 149.513 64 158 64C166.487 64 174.626 60.6286 180.627 54.6274ZM169.789 17.8823L159.53 23.4373L159.534 23.4303C159.39 23.5088 159.283 23.641 159.236 23.7982C159.189 23.9553 159.206 24.1246 159.283 24.2693L159.323 24.3423C159.401 24.4865 159.533 24.5938 159.691 24.6407C159.848 24.6876 160.017 24.6702 160.162 24.5923L167.456 20.6503C167.801 20.4517 168.211 20.3978 168.597 20.5003C168.982 20.6027 169.311 20.8533 169.512 21.1973C169.69 21.554 169.719 21.9666 169.594 22.3449C169.469 22.7233 169.199 23.0369 168.844 23.2173L161.626 27.1203C161.463 27.2014 161.339 27.3434 161.281 27.5156C161.222 27.6877 161.234 27.876 161.314 28.0393C161.407 28.1958 161.558 28.3091 161.734 28.3546C161.911 28.4001 162.098 28.3741 162.255 28.2823L164.232 27.2123L164.412 27.1123L167.666 25.3523C168.011 25.1536 168.422 25.0995 168.807 25.2017C169.192 25.304 169.521 25.5544 169.723 25.8983C169.901 26.2552 169.93 26.6678 169.805 27.0464C169.68 27.425 169.41 27.7387 169.055 27.9193L164.197 30.5463L163.416 30.9623C163.237 30.4769 162.892 30.0699 162.444 29.8123C161.995 29.5548 161.47 29.4631 160.96 29.5533L152.113 31.2413C151.855 31.3029 151.607 31.396 151.372 31.5183C150.716 30.9273 150.167 30.2274 149.75 29.4493C149.154 28.3487 148.833 27.1207 148.814 25.8694C148.795 24.6182 149.078 23.3807 149.639 22.2623C149.645 22.2523 149.645 22.2423 149.645 22.2323L153.353 13.9693C153.507 13.6016 153.8 13.3097 154.168 13.1574C154.537 13.0051 154.95 13.0047 155.319 13.1563C155.677 13.332 155.952 13.6422 156.083 14.0193C156.214 14.3965 156.191 14.8101 156.019 15.1703L154.819 17.8423L156.759 16.7933C156.773 16.7854 156.788 16.7805 156.802 16.7756C156.819 16.77 156.835 16.7644 156.852 16.7543C156.865 16.7461 156.878 16.737 156.89 16.7279C156.906 16.7159 156.923 16.704 156.941 16.6943L164.795 12.4463C165.14 12.2475 165.551 12.1934 165.936 12.2958C166.321 12.3983 166.65 12.6491 166.851 12.9933C167.029 13.35 167.058 13.7625 166.933 14.1409C166.808 14.5193 166.538 14.8329 166.183 15.0133L157.512 19.7023C157.368 19.781 157.26 19.9136 157.213 20.0712C157.167 20.2288 157.184 20.3986 157.262 20.5433L157.3 20.6153C157.379 20.7597 157.511 20.867 157.669 20.9139C157.826 20.9607 157.996 20.9433 158.141 20.8653L168.401 15.3163C168.746 15.1176 169.156 15.0635 169.541 15.1658C169.927 15.2681 170.256 15.5184 170.457 15.8623C170.635 16.219 170.664 16.6316 170.539 17.01C170.414 17.3884 170.144 17.7019 169.789 17.8823ZM158.019 38.6193L168.475 43.7553C168.837 43.9213 169.119 44.2236 169.258 44.5963C169.398 44.9689 169.384 45.3816 169.221 45.7443C169.033 46.0955 168.715 46.3582 168.334 46.4755C167.954 46.5928 167.543 46.5549 167.19 46.3703L156.738 41.2343C156.591 41.1623 156.421 41.1516 156.266 41.2044C156.111 41.2573 155.983 41.3694 155.91 41.5163L155.873 41.5903C155.801 41.7377 155.791 41.9075 155.844 42.0626C155.897 42.2177 156.009 42.3456 156.156 42.4183L163.593 46.0723C163.955 46.2385 164.236 46.541 164.375 46.9138C164.515 47.2866 164.502 47.6994 164.338 48.0623C164.15 48.4132 163.832 48.6758 163.452 48.7929C163.071 48.9099 162.66 48.872 162.308 48.6873L154.952 45.0743C154.792 44.9886 154.604 44.9697 154.43 45.0218C154.256 45.0739 154.11 45.1927 154.023 45.3523C153.95 45.5187 153.945 45.7073 154.01 45.877C154.076 46.0467 154.205 46.1837 154.371 46.2583L159.884 48.9673C160.245 49.1335 160.526 49.4359 160.666 49.8084C160.806 50.181 160.792 50.5935 160.629 50.9563C160.442 51.3074 160.123 51.5702 159.743 51.6874C159.363 51.8047 158.951 51.7669 158.599 51.5823L153.65 49.1503C153.65 49.1503 149.162 46.9073 149.05 46.8073C147.413 45.7851 146.213 44.1917 145.684 42.3358C145.154 40.48 145.332 38.4936 146.183 36.7613C146.734 35.6398 147.547 34.6677 148.554 33.9278C149.561 33.1879 150.731 32.702 151.966 32.5113C151.971 32.5104 151.975 32.5078 151.979 32.5053C151.984 32.5023 151.989 32.4993 151.995 32.4993L160.864 30.7343C161.056 30.6899 161.255 30.6839 161.45 30.7167C161.645 30.7494 161.831 30.8203 161.998 30.9252C162.166 31.0301 162.31 31.1669 162.425 31.3279C162.539 31.4889 162.62 31.6708 162.664 31.8633C162.728 32.2565 162.635 32.6592 162.404 32.9838C162.173 33.3084 161.823 33.5285 161.43 33.5963L158.562 34.1673L160.539 35.1383C160.552 35.145 160.564 35.1534 160.575 35.162C160.59 35.1727 160.605 35.1835 160.624 35.1913C160.638 35.1971 160.652 35.2019 160.666 35.2066C160.685 35.2133 160.705 35.2199 160.724 35.2293L168.724 39.1613C169.085 39.3276 169.366 39.6299 169.506 40.0024C169.646 40.375 169.632 40.7875 169.469 41.1503C169.281 41.5013 168.962 41.7639 168.582 41.8809C168.202 41.998 167.79 41.96 167.438 41.7753L158.602 37.4343C158.454 37.3623 158.284 37.3517 158.129 37.4048C157.974 37.4578 157.846 37.5702 157.773 37.7173L157.737 37.7913C157.665 37.9386 157.655 38.1083 157.707 38.2634C157.76 38.4185 157.872 38.5464 158.019 38.6193Z" fill="#1767CE"/>
</svg>

<svg xmlns="http://www.w3.org/2000/svg" viewBox="0 0 190 64"><path fill="#0A2343" d="M0 53V11.004h13.78V53H0Zm32.528-35.312L40.453 53h-15.08l-9.464-41.996h8.459a7.965 7.965 0 0 1 5.293 1.922 8.31 8.31 0 0 1 2.867 4.762ZM42.523 53V11.004h13.78V53h-13.78Zm24.189-26.026a8.213 8.213 0 0 1-4.228-1.124 8.336 8.336 0 0 1-3.046-3.046 8.206 8.206 0 0 1-1.125-4.229 8.056 8.056 0 0 1 1.125-4.2 8.437 8.437 0 0 1 3.046-3.016 8.233 8.233 0 0 1 4.228-1.124 8.083 8.083 0 0 1 4.199 1.124 8.504 8.504 0 0 1 3.016 3.017 8.075 8.075 0 0 1 1.125 4.2 8.226 8.226 0 0 1-1.125 4.228 8.4 8.4 0 0 1-3.016 3.046 8.059 8.059 0 0 1-4.201 1.124h.002ZM77.18 53V11.004h13.781V53H77.181Zm31.227-19.046c.039.04.334.524.887 1.449.553.925 1.272 2.108 2.159 3.549a1143.28 1143.28 0 0 1 5.589 9.168A854.89 854.89 0 0 0 120 53h-15.141c-.947-1.538-1.804-2.928-2.573-4.17a382.214 382.214 0 0 1-2.453-4.022 351.934 351.934 0 0 0-2.574-4.2 213.445 213.445 0 0 1-2.188-3.578 62.753 62.753 0 0 0-1.272-2.07 6.119 6.119 0 0 1-1.005-2.958 5.744 5.744 0 0 1 .946-2.84c.236-.394.67-1.095 1.3-2.1.632-1.006 1.371-2.198 2.219-3.579a636.03 636.03 0 0 0 2.574-4.229c.869-1.439 1.686-2.79 2.453-4.052.77-1.26 1.628-2.66 2.573-4.2H120l-11.711 19.106a3.773 3.773 0 0 0-.592 1.894c.039.706.286 1.385.709 1.952h.002Z"/><circle cx="158" cy="32" r="31" fill="#fff"/><path fill="#1767CE" fill-rule="evenodd" d="M180.627 54.627a31.997 31.997 0 0 0 0-45.254 31.999 31.999 0 1 0-45.254 45.254 31.998 31.998 0 0 0 45.254 0Zm-10.838-36.745-10.259 5.555.004-.007a.622.622 0 0 0-.251.84l.04.072a.618.618 0 0 0 .839.25l7.294-3.942a1.51 1.51 0 0 1 2.056.547 1.51 1.51 0 0 1-.668 2.02l-7.218 3.903a.686.686 0 0 0-.312.92.69.69 0 0 0 .941.242l1.977-1.07.18-.1 3.254-1.76a1.511 1.511 0 0 1 2.057.546 1.51 1.51 0 0 1-.668 2.021l-4.858 2.627-.781.416a2.21 2.21 0 0 0-2.456-1.409l-8.847 1.688a3.226 3.226 0 0 0-.741.277 7.647 7.647 0 0 1-1.622-2.069 7.765 7.765 0 0 1-.111-7.187c.006-.01.006-.02.006-.03l3.708-8.263a1.51 1.51 0 0 1 1.966-.813 1.516 1.516 0 0 1 .7 2.014l-1.2 2.672 1.94-1.049c.014-.008.029-.012.043-.017a.238.238 0 0 0 .088-.048.412.412 0 0 1 .051-.034l7.854-4.248a1.51 1.51 0 0 1 2.056.547 1.51 1.51 0 0 1-.668 2.02l-8.671 4.69a.625.625 0 0 0-.25.84l.038.072a.622.622 0 0 0 .841.25l10.26-5.549a1.508 1.508 0 0 1 2.056.546 1.51 1.51 0 0 1-.668 2.02Zm-11.77 20.737 10.456 5.136a1.504 1.504 0 0 1 .746 1.99 1.51 1.51 0 0 1-2.031.625l-10.452-5.136a.62.62 0 0 0-.828.282l-.037.074a.62.62 0 0 0 .283.828l7.437 3.654c.362.166.643.469.782.842.14.373.127.785-.037 1.148a1.51 1.51 0 0 1-2.03.625l-7.356-3.613a.688.688 0 0 0-.929.278.691.691 0 0 0 .348.906l5.513 2.71a1.51 1.51 0 0 1 .745 1.988 1.507 1.507 0 0 1-2.03.626l-4.949-2.432s-4.488-2.243-4.6-2.343a7.79 7.79 0 0 1-.496-12.88 7.762 7.762 0 0 1 3.412-1.416c.005 0 .009-.003.013-.006.005-.003.01-.006.016-.006l8.869-1.765a1.497 1.497 0 0 1 1.8 1.13 1.513 1.513 0 0 1-1.234 1.732l-2.868.571 1.977.971a.231.231 0 0 1 .036.024c.015.01.03.022.049.03l.042.015c.019.006.039.013.058.022l8 3.932a1.511 1.511 0 0 1 .745 1.99 1.511 1.511 0 0 1-2.031.624l-8.836-4.34a.621.621 0 0 0-.829.282l-.036.074a.624.624 0 0 0 .282.828Z" clip-rule="evenodd"/></svg>
